X: 146128
T: The COLLEGE HORNPIPE
R: Hornpipe.
%R: hornpipe
B: James Kerr "Merry Melodies" v.1 p.46 s.1 #28
Z: 2016 John Chambers <jc:trillian.mit.edu>
N: The 2nd strain would also usually be repeated.
M: C
L: 1/8
K: Bb
(BA) |\
B2B,2 B,2(FE) | DFB2 ( Bd)cB |\
c2C2 C2(cB) | Acf2 f2ga |\
bagf gfed | edcB BAGF |\
GBAc Bdce | d2B2B2 :|
(FE) |\
DFBF DFBF | G2E2 E2(GF) |\
=EGcG EGcG | A2F2 F2(ed) |\
e2g2 gfed | edcB BAGF |\
GBAc Bdce | d2B2B2 |]

%%sep 1 1 500
%%sep 1 1 500

